X: 234
T:Scottiche d'Aurice
M:2/4
L:1/8
Q:50
O:France
A:Aquitaine
K:C
Ge|ed/2e/2 fe|d2 Gd|Gd g/2f/2e/2d/2|1ec:|2c2|
|:g/2f/2g/2e/2|cc/2e/2 gf/2e/2|d2Bd|Bd g/2f/2e/2d/2|1ec:|2c2||
W:
W: From "Falaleiro" http://home.t-online.de/home/pheld/homepage.htm

